X: 1
T: Vondez Waltz
C: trad. Norway arr. Rachel Maloney / Rustic Roots
R: waltz
S: https://www.patreon.com/posts/rustic-roots-27198819
Z: 2020 John Chambers <jc:trillian.mit.edu>
M: 3/4
L: 1/8
K: G
D2 |\
"Gm"G3 A Bd | "Cm"c3 d cA | "Gm"BG DG BG | "D"A^F DF AF |\
"Gm"G3 A Bd | "Cm"c3 d cA | "Gm"BG DG "D"A^F | "Gm"G4 :|
|: {D}GA |\
"Gm"B2 BA GF | "Eb"E4 AB | "F"cA FA cA | "Gm"B2 BG DG |\
"Gm"B2 BA GF | "Eb"E4 AB | "F"c2 cA FD | "Gm"G4 :|
